X:1
T:San Salvador, 76.76 D
T:San Salvador, 76.76 D
T:Sanford Miller Brown, 1889
T:Public Domain Courtesy of the Cyber Hymnal™
C:Sanford Miller Brown, 1889
Z:Public Domain
Z:Courtesy of the Cyber Hymnal™
%%score ( 1 2 ) 3
L:1/8
Q:1/4=110
M:4/4
K:F
V:1 treble 
V:2 treble 
V:3 bass 
V:1
 [FA]2 [FA]>[FG] F2 [FA]2 | [DB]4 [Fd]2 z2 | [Fc]2 [Fd]>[Fc] [FA]2 F2 | [EG]6 z2 | %4
 [FA]2 [FA]>[FG] F2 [FA]2 | [DB]4 [Fd]2 z2 | [Fc]2 [Fd]>[Fc] [FA]2 [EG]2 | F6 z2 | %8
 [Fd]2 [Fd]>[Fd] [Fd]2 [Fd]2 | ([Fc]3 [FA]) [Fc]2 z2 | [Fd]2 [Fd]>[Fd] [Fc]2 [FA]2 | [EG]6 z2 | %12
 [FA]2 [FA]>[FG] F2 [FA]2 | ([FB]3 [Fc]) [Fd]2 z2 | [Fc]2 [Fd]>[Fc] [FA]2 [EG]2 | F6 z2 |] %16
V:2
 x4 F2 x2 | x8 | x6 F2 | x8 | x4 F2 x2 | x8 | x8 | F6 x2 | x8 | x8 | x8 | x8 | x4 F2 x2 | x8 | x8 | %15
 F6 x2 |] %16
V:3
 [F,C]2 [F,C]>[F,B,] [F,A,]2 [F,C]2 | [B,,B,]4 [B,,B,]2 z2 | [F,A,]2 [F,B,]>[F,A,] [F,C]2 [F,A,]2 | %3
 [C,C]6 z2 | [F,C]2 [F,C]>[F,B,] [F,A,]2 [F,C]2 | [B,,B,]4 [B,,B,]2 z2 | %6
 [F,A,]2 [F,B,]>[F,A,] [C,C]2 [C,B,]2 | [F,A,]6 z2 | [B,,B,]2 [B,,B,]>[B,,B,] [B,,B,]2 [B,,B,]2 | %9
 ([F,A,]3 [F,C]) [F,A,]2 z2 | [B,,B,]2 [B,,B,]>[B,,B,] [F,A,]2 [F,C]2 | [C,C]6 z2 | %12
 [F,C]2 [F,C]>[F,B,] [F,A,]2 [_E,C]2 | ([D,B,]3 [C,A,]) [B,,B,]2 z2 | %14
 [F,A,]2 [F,B,]>[F,A,] [C,C]2 [C,B,]2 | [F,A,]6 z2 |] %16

